packages/ui-solid/icons/reorder_24.svg

<svg width="24" height="24" viewBox="0 0 24 24" fill="none" xmlns="http://www.w3.org/2000/svg">
<path fill-rule="evenodd" clip-rule="evenodd" d="M2.10001 7.99998C2.10001 7.50292 2.50295 7.09998 3.00001 7.09998H21C21.4971 7.09998 21.9 7.50292 21.9 7.99998C21.9 8.49703 21.4971 8.89998 21 8.89998H3.00001C2.50295 8.89998 2.10001 8.49703 2.10001 7.99998ZM2.10001 12C2.10001 11.5029 2.50295 11.1 3.00001 11.1H21C21.4971 11.1 21.9 11.5029 21.9 12C21.9 12.497 21.4971 12.9 21 12.9H3.00001C2.50295 12.9 2.10001 12.497 2.10001 12ZM2.10001 16C2.10001 15.5029 2.50295 15.1 3.00001 15.1H21C21.4971 15.1 21.9 15.5029 21.9 16C21.9 16.497 21.4971 16.9 21 16.9H3.00001C2.50295 16.9 2.10001 16.497 2.10001 16Z" fill="#007AFF"/>
</svg>

<svg xmlns="http://www.w3.org/2000/svg" width="24" height="24" fill="none"><path fill="currentColor" fill-rule="evenodd" d="M2.1 8a.9.9 0 0 1 .9-.9h18a.9.9 0 1 1 0 1.8H3a.9.9 0 0 1-.9-.9m0 4a.9.9 0 0 1 .9-.9h18a.9.9 0 1 1 0 1.8H3a.9.9 0 0 1-.9-.9m0 4a.9.9 0 0 1 .9-.9h18a.9.9 0 1 1 0 1.8H3a.9.9 0 0 1-.9-.9" clip-rule="evenodd"/></svg>
